X: 1
T: Martin Wynne's
R: reel
M: 4/4
L: 1/8
K: Dmaj
FBAF E2FE|DB,~B,2 DB,A,2|B,E~E2 FEDE|FABc dcBA|
FBAF E2FE|DB,~B,2 DB,A,2|B,E~E2 FEDE|FBBA B2BA:|
|:FBAF A2FA|(3Bcd eg edde|~f2af egfe|dBAF BAFE|
FBAF A2FA|Beeg fdde|~f2af e2ge | dBAF ~B2AB:||


Tune 359	Setting 29257

